deepin/places/network-workgroup-symbolic.svg

<?xml version="1.0" encoding="iso-8859-1"?>
<!-- Generator: Adobe Illustrator 18.0.0, SVG Export Plug-In . SVG Version: 6.00 Build 0)  -->
<!DOCTYPE svg PUBLIC "-//W3C//DTD SVG 1.1//EN" "http://www.w3.org/Graphics/SVG/1.1/DTD/svg11.dtd">
<svg version="1.1" id="&#x56FE;&#x5C42;_1" xmlns="http://www.w3.org/2000/svg" xmlns:xlink="http://www.w3.org/1999/xlink" x="0px"
	 y="0px" viewBox="0 0 16 16" style="enable-background:new 0 0 16 16;" xml:space="preserve">
<g>
	<path style="fill:#9FA0A0;" d="M9.834,12.537c-0.248-0.115-0.548-0.007-0.663,0.245C9,13.153,8.815,13.448,8.623,13.66
		c-0.418,0.459-0.787,0.459-1.206,0c-0.041-0.045-0.199-0.242-0.54-0.916c-0.125-0.246-0.426-0.345-0.672-0.221
		c-0.247,0.125-0.345,0.426-0.221,0.672c0.428,0.847,0.627,1.065,0.692,1.137c0.507,0.558,1.01,0.675,1.343,0.675
		c0.333,0,0.837-0.117,1.342-0.674c0.262-0.287,0.503-0.668,0.717-1.133C10.194,12.949,10.085,12.652,9.834,12.537z"/>
	<path style="fill:#9FA0A0;" d="M6.21,3.469C6.277,3.5,6.349,3.515,6.418,3.515c0.189,0,0.37-0.107,0.455-0.291
		c0.351-0.762,0.78-1.217,1.147-1.217c0.363,0,0.788,0.447,1.137,1.195c0.118,0.252,0.415,0.359,0.664,0.242
		c0.251-0.116,0.359-0.414,0.242-0.664C9.38,1.314,8.575,1.007,8.02,1.007c-0.56,0-1.371,0.313-2.055,1.799
		C5.849,3.057,5.959,3.354,6.21,3.469z"/>
	<path style="fill:#9FA0A0;" d="M14.571,4.815c0.085-0.456,0.019-0.847-0.198-1.163c-0.203-0.294-0.635-0.646-1.537-0.646
		c-1.209,0-2.965,0.624-4.815,1.672C5.299,3.137,2.544,2.376,1.668,3.653c-0.34,0.493-0.479,1.43,0.786,3.09
		c0.167,0.22,0.48,0.263,0.701,0.095c0.219-0.167,0.262-0.48,0.095-0.7c-0.754-0.99-0.924-1.677-0.758-1.917
		C2.826,3.736,4.628,4.013,7.027,5.28C6.824,5.41,6.62,5.538,6.417,5.678C5.505,6.302,4.692,6.96,3.988,7.615
		C3.967,7.631,3.942,7.641,3.923,7.661C3.915,7.67,3.913,7.681,3.906,7.69c-1.357,1.279-2.257,2.54-2.438,3.509
		c-0.084,0.456-0.018,0.848,0.2,1.163c0.203,0.294,0.635,0.646,1.537,0.646c1.554,0,4.014-1.023,6.418-2.671
		C12.354,8.466,14.296,6.299,14.571,4.815z M3.205,12.007c-0.36,0-0.62-0.078-0.714-0.213c-0.076-0.11-0.063-0.285-0.04-0.413
		c0.112-0.606,0.73-1.581,1.857-2.698c0.563,0.5,1.167,0.991,1.829,1.459c0.087,0.063,0.188,0.092,0.288,0.092
		c0.157,0,0.312-0.073,0.409-0.211c0.16-0.226,0.106-0.538-0.12-0.697C6.111,8.899,5.561,8.452,5.045,7.998
		c0.557-0.487,1.2-0.991,1.937-1.496c0.345-0.236,0.691-0.454,1.036-0.663c0.34,0.206,0.685,0.42,1.04,0.664
		C9.418,6.748,9.764,7,10.091,7.255c0.091,0.071,0.199,0.105,0.307,0.105c0.148,0,0.296-0.066,0.395-0.192
		c0.17-0.219,0.131-0.532-0.087-0.702C10.361,6.199,10,5.936,9.623,5.678C9.423,5.54,9.22,5.406,9.016,5.276
		c1.5-0.792,2.89-1.269,3.82-1.269c0.359,0,0.62,0.078,0.713,0.213c0.076,0.11,0.063,0.285,0.04,0.413
		c-0.183,0.979-1.678,2.925-4.53,4.879C6.845,11.027,4.548,12.007,3.205,12.007z"/>
	<path style="fill:#9FA0A0;" d="M13.318,8.934c-0.177-0.213-0.493-0.24-0.704-0.065c-0.213,0.177-0.242,0.492-0.065,0.704
		c0.95,1.144,1.185,1.953,1,2.222c-0.201,0.29-1.245,0.408-3.278-0.453l-0.619-0.293c-0.247-0.116-0.547-0.013-0.666,0.238
		c-0.118,0.25-0.011,0.548,0.238,0.666l0.638,0.301c1.189,0.504,2.192,0.757,2.97,0.757c0.719,0,1.244-0.217,1.542-0.649
		C14.903,11.588,14.539,10.403,13.318,8.934z"/>
</g>
</svg>

<?xml version="1.0" encoding="UTF-8" standalone="no"?>
<!-- Created with Inkscape (http://www.inkscape.org/) -->

<svg
   xmlns:dc="http://purl.org/dc/elements/1.1/"
   xmlns:cc="http://creativecommons.org/ns#"
   xmlns:rdf="http://www.w3.org/1999/02/22-rdf-syntax-ns#"
   xmlns:svg="http://www.w3.org/2000/svg"
   xmlns="http://www.w3.org/2000/svg"
   xmlns:inkscape="http://www.inkscape.org/namespaces/inkscape"
   version="1.1"
   width="100%"
   height="100%"
   viewBox="0 0 16 16"
   id="图层_1"
   xml:space="preserve"><metadata
     id="metadata17"><rdf:RDF><cc:Work
         rdf:about=""><dc:format>image/svg+xml</dc:format><dc:type
           rdf:resource="http://purl.org/dc/dcmitype/StillImage" /></cc:Work></rdf:RDF></metadata><defs
     id="defs15" /><g
     id="g3"><path
       d="M 9.834,12.537 C 9.586,12.422 9.286,12.53 9.171,12.782 9,13.153 8.815,13.448 8.623,13.66 8.205,14.119 7.836,14.119 7.417,13.66 7.376,13.615 7.218,13.418 6.877,12.744 6.752,12.498 6.451,12.399 6.205,12.523 5.958,12.648 5.86,12.949 5.984,13.195 c 0.428,0.847 0.627,1.065 0.692,1.137 0.507,0.558 1.01,0.675 1.343,0.675 0.333,0 0.837,-0.117 1.342,-0.674 0.262,-0.287 0.503,-0.668 0.717,-1.133 0.116,-0.251 0.007,-0.548 -0.244,-0.663 z"
       inkscape:connector-curvature="0"
       id="path5"
       style="fill:#9fa0a0" /><path
       d="M 6.21,3.469 C 6.277,3.5 6.349,3.515 6.418,3.515 6.607,3.515 6.788,3.408 6.873,3.224 7.224,2.462 7.653,2.007 8.02,2.007 8.383,2.007 8.808,2.454 9.157,3.202 9.275,3.454 9.572,3.561 9.821,3.444 10.072,3.328 10.18,3.03 10.063,2.78 9.38,1.314 8.575,1.007 8.02,1.007 7.46,1.007 6.649,1.32 5.965,2.806 5.849,3.057 5.959,3.354 6.21,3.469 z"
       inkscape:connector-curvature="0"
       id="path7"
       style="fill:#9fa0a0" /><path
       d="M 14.571,4.815 C 14.656,4.359 14.59,3.968 14.373,3.652 14.17,3.358 13.738,3.006 12.836,3.006 11.627,3.006 9.871,3.63 8.021,4.678 5.299,3.137 2.544,2.376 1.668,3.653 1.328,4.146 1.189,5.083 2.454,6.743 2.621,6.963 2.934,7.006 3.155,6.838 3.374,6.671 3.417,6.358 3.25,6.138 2.496,5.148 2.326,4.461 2.492,4.221 2.826,3.736 4.628,4.013 7.027,5.28 6.824,5.41 6.62,5.538 6.417,5.678 5.505,6.302 4.692,6.96 3.988,7.615 3.967,7.631 3.942,7.641 3.923,7.661 3.915,7.67 3.913,7.681 3.906,7.69 2.549,8.969 1.649,10.23 1.468,11.199 c -0.084,0.456 -0.018,0.848 0.2,1.163 0.203,0.294 0.635,0.646 1.537,0.646 1.554,0 4.014,-1.023 6.418,-2.671 2.731,-1.871 4.673,-4.038 4.948,-5.522 z M 3.205,12.007 c -0.36,0 -0.62,-0.078 -0.714,-0.213 -0.076,-0.11 -0.063,-0.285 -0.04,-0.413 0.112,-0.606 0.73,-1.581 1.857,-2.698 0.563,0.5 1.167,0.991 1.829,1.459 0.087,0.063 0.188,0.092 0.288,0.092 0.157,0 0.312,-0.073 0.409,-0.211 C 6.994,9.797 6.94,9.485 6.714,9.326 6.111,8.899 5.561,8.452 5.045,7.998 5.602,7.511 6.245,7.007 6.982,6.502 7.327,6.266 7.673,6.048 8.018,5.839 c 0.34,0.206 0.685,0.42 1.04,0.664 0.36,0.245 0.706,0.497 1.033,0.752 0.091,0.071 0.199,0.105 0.307,0.105 0.148,0 0.296,-0.066 0.395,-0.192 C 10.963,6.949 10.924,6.636 10.706,6.466 10.361,6.199 10,5.936 9.623,5.678 9.423,5.54 9.22,5.406 9.016,5.276 c 1.5,-0.792 2.89,-1.269 3.82,-1.269 0.359,0 0.62,0.078 0.713,0.213 0.076,0.11 0.063,0.285 0.04,0.413 -0.183,0.979 -1.678,2.925 -4.53,4.879 -2.214,1.515 -4.511,2.495 -5.854,2.495 z"
       inkscape:connector-curvature="0"
       id="path9"
       style="fill:#9fa0a0" /><path
       d="m 13.318,8.934 c -0.177,-0.213 -0.493,-0.24 -0.704,-0.065 -0.213,0.177 -0.242,0.492 -0.065,0.704 0.95,1.144 1.185,1.953 1,2.222 -0.201,0.29 -1.245,0.408 -3.278,-0.453 L 9.652,11.049 c -0.247,-0.116 -0.547,-0.013 -0.666,0.238 -0.118,0.25 -0.011,0.548 0.238,0.666 l 0.638,0.301 c 1.189,0.504 2.192,0.757 2.97,0.757 0.719,0 1.244,-0.217 1.542,-0.649 0.529,-0.774 0.165,-1.959 -1.056,-3.428 z"
       inkscape:connector-curvature="0"
       id="path11"
       style="fill:#9fa0a0" /></g></svg>
